X:62
T:Admiral Rodney's Delight. THO2.062
O:London
M:6/8
L:1/8
Q:3/8=120
B:Thompson's Compleat Coll. of 200 Favourite Country Dances, vol.2,1765
Z:Transcribed and edited by Fynn Titford-Mock, 2007
Z:abc's:AK/Fiddler's Companion/VMP 2009
K:G
gdB ecA|dBG AFD|gdB ecA|1 efg dBG:|2 BdF G3||
|:def gbg|faf e^cA|def gbg|fa^c d2g:|
|:d2e dBG|F2G AFD|d2g dBG|cAF HG2g:|

